X:161 
T:Paddy O Rafferty
T:Jim Droney's
S:James & Chris Droney
F:file ID: cre.5/161paddy_o
B:CRE5.014 (PÃÂÃÂÃÂÃÂ¡idÃÂÃÂÃÂÃÂ­n ÃÂÃÂÃÂÃÂ³ Raifertaigh)
M:6/8
Q:160
R:jig
K:G
D|GAB D2D|GAB AGE|GAB D2D|GAG GED|
GAB D2D|GAB d2e|dBB AGA|BGG G2:|
z|dBB dBB|dBB A2B|dBB dBA|GAG GED|
dBB dBB|def g2e|dBB AGA|BGG G2:|

%%%

